images/icons/app-store.svg

<svg xmlns="http://www.w3.org/2000/svg" width="56" height="56" viewBox="0 0 56 56"><path d="M28 .5C12.8.5.5 12.8.5 28S12.8 55.5 28 55.5 55.5 43.2 55.5 28 43.2.5 28 .5zM17.6 39.8c-.4.6-1 .9-1.7.9-.3 0-.7-.1-1-.3-.9-.5-1.2-1.7-.7-2.6l1.9-3.1c.2-.3.5-.5.9-.5h.3c1.4 0 2.3.8 2.6 1.6l-2.3 4zm15.9-6.2H13c-1.1 0-2-.9-1.9-2 0-1 .9-1.8 2-1.8H19l7-12-2.3-3.8c-.5-.9-.3-2 .6-2.6.9-.6 2.1-.3 2.7.6l1.2 2.1 1.2-2.1c.5-.9 1.8-1.2 2.7-.6.9.6 1.1 1.7.6 2.6l-2.3 3.9-2.2 3.8-4.8 8.2h7.1c.9 0 2 .5 2.4 1.2v.1c.4.7.6 1.1.6 1.8.1.4 0 .6 0 .6zm9.5 0h-3.3l2.4 4.1c.5.9.3 2.1-.6 2.6-.3.2-.6.3-1 .3-.7 0-1.3-.3-1.7-.9l-3.6-6.1-2.2-3.8-2.9-4.9c-.8-1.4-.9-3.2-.1-4.7.6-1 1-1.3 1-1.3l6.4 10.9H43c1 0 1.9.8 2 1.8 0 1.1-.9 2-2 2z" fill="#191A19"/></svg>

<svg xmlns="http://www.w3.org/2000/svg" width="56" height="56" viewBox="0 0 56 56">
  <g fill="none">
    <g fill="#191A19">
      <path d="M28 0.5C12.8 0.5 0.5 12.8 0.5 28 0.5 43.2 12.8 55.5 28 55.5 43.2 55.5 55.5 43.2 55.5 28 55.5 12.8 43.2 0.5 28 0.5ZM17.6 39.8C17.2 40.4 16.6 40.7 15.9 40.7 15.6 40.7 15.2 40.6 14.9 40.4 14 39.9 13.7 38.7 14.2 37.8L16.1 34.7C16.3 34.4 16.6 34.2 17 34.2L17.3 34.2C18.7 34.2 19.6 35 19.9 35.8L17.6 39.8 17.6 39.8ZM33.5 33.6L21.2 33.6 13 33.6C11.9 33.6 11 32.7 11.1 31.6 11.1 30.6 12 29.8 13.1 29.8L19 29.8 26 17.8 23.7 14C23.2 13.1 23.4 12 24.3 11.4 25.2 10.8 26.4 11.1 27 12L28.2 14.1 28.2 14.1 29.4 12C29.9 11.1 31.2 10.8 32.1 11.4 33 12 33.2 13.1 32.7 14L30.4 17.9 28.2 21.7 23.4 29.9 23.4 29.9 30.5 29.9C31.4 29.9 32.5 30.4 32.9 31.1L32.9 31.2C33.3 31.9 33.5 32.3 33.5 33 33.6 33.4 33.5 33.6 33.5 33.6L33.5 33.6ZM43 33.6L39.7 33.6 39.7 33.6 42.1 37.7C42.6 38.6 42.4 39.8 41.5 40.3 41.2 40.5 40.9 40.6 40.5 40.6 39.8 40.6 39.2 40.3 38.8 39.7L35.2 33.6 33 29.8 30.1 24.9C29.3 23.5 29.2 21.7 30 20.2 30.6 19.2 31 18.9 31 18.9L37.4 29.8 43 29.8C44 29.8 44.9 30.6 45 31.6 45 32.7 44.1 33.6 43 33.6L43 33.6Z"/>
    </g>
  </g>
</svg>
